Papirus/16x16/mimetypes/application-vnd.android.package-archive.svg

<svg xmlns="http://www.w3.org/2000/svg" width="16" height="16" version="1.1" viewBox="0 0 16 16">
 <path fill="#a1c538" d="m2.75 1c-0.4172 0-0.75 0.3328-0.75 0.75v13.5c0 0.417 0.3328 0.75 0.75 0.75h10.5c0.418 0 0.75-0.332 0.75-0.75v-9.25l-4.125-0.875-0.875-4.125z"/>
 <path fill="#d7f57a" d="m9 1v4.1667c0 0.4584 0.3749 0.8333 0.8333 0.8333h4.1667z"/>
 <path fill="#fff" d="m6.0215 5.4883c-0.0208-0.0054-0.043-0.0046-0.0586 0.0117-0.0313 0.0218-0.0416 0.0655-0.0156 0.1035l0.4277 0.6133c-0.6771 0.3151-1.3125 1.0875-1.375 1.7832h5c-0.0625-0.6957-0.7813-1.4681-1.4531-1.7832l0.4219-0.6133c0.026-0.038 0.0209-0.0817-0.0157-0.1035-0.0312-0.0271-0.0775-0.0166-0.1035 0.0215l-0.4375 0.6406c-0.2917-0.1141-0.6146-0.1777-0.9531-0.1777-0.3386 0-0.6628 0.0636-0.9492 0.1777l-0.4414-0.6406c-0.0104-0.0164-0.0313-0.0332-0.0469-0.0332zm0.2285 1.5117c0.1367 0 0.25 0.1133 0.25 0.25s-0.1133 0.25-0.25 0.25-0.25-0.1133-0.25-0.25 0.1094-0.25 0.25-0.25zm2.5 0c0.1367 0 0.25 0.1133 0.25 0.25s-0.1133 0.25-0.25 0.25-0.25-0.1133-0.25-0.25 0.1094-0.25 0.25-0.25zm-4.2285 2c-0.2864 0-0.5215 0.2299-0.5215 0.5059v1.9841c0 0.282 0.2351 0.51 0.5215 0.51 0.2865 0 0.4785-0.228 0.4785-0.51v1.391c0 0.228 0.2662 0.379 0.5 0.379h0.5v1.31c0 0.284 0.25 0.43 0.5 0.43s0.538-0.146 0.5-0.43v-1.31h1v1.31c0 0.284 0.25 0.43 0.5 0.43s0.5163-0.146 0.5-0.43v-1.308h0.5c0.2338 0 0.4638-0.156 0.5-0.381v-1.391c0 0.282 0.235 0.51 0.521 0.51 0.287 0 0.479-0.228 0.479-0.51v-1.9841c0-0.2757-0.187-0.5059-0.479-0.5059-0.286 0-0.521 0.2299-0.521 0.5059v-0.5059h-5v0.5059c0-0.2757-0.1868-0.5059-0.4785-0.5059z"/>
</svg>

<svg xmlns="http://www.w3.org/2000/svg" width="16" height="16" version="1.1">
 <path style="fill:#a3c639" d="M 2.8008,1 C 2.3576,1 2,1.3576 2,1.8008 V 15.199 C 2,15.642 2.3576,16 2.8008,16 H 13.199 C 13.642,16 14,15.642 14,15.199 V 6 L 10,5 9,1 Z"/>
 <path style="fill:#d7f57c" d="M 14,6 9,1 V 5.1992 C 9,5.6424 9.358,6 9.801,6 Z"/>
 <path style="fill:#ffffff" d="M 6.0215,5.4885 C 6.0007,5.4831 5.9785,5.4839 5.9629,5.5002 5.9316,5.522 5.9213,5.5657 5.9473,5.6037 L 6.375,6.217 C 5.6979,6.5321 5.0625,7.3045 5,8.0002 H 10 C 9.9375,7.3045 9.2187,6.5321 8.5469,6.217 L 8.9688,5.6037 C 8.9948,5.5657 8.9897,5.522 8.9531,5.5002 8.9219,5.4731 8.8756,5.4836 8.8496,5.5217 L 8.4121,6.1623 C 8.1204,6.0482 7.7975,5.9846 7.459,5.9846 7.1204,5.9846 6.7962,6.0482 6.5098,6.1623 L 6.0684,5.5217 C 6.058,5.5053 6.0371,5.4885 6.0215,5.4885 Z M 6.25,7.0002 C 6.3867,7.0002 6.5,7.1135 6.5,7.2502 6.5,7.3869 6.3867,7.5002 6.25,7.5002 6.1133,7.5002 6,7.3869 6,7.2502 6,7.1135 6.1094,7.0002 6.25,7.0002 Z M 8.75,7.0002 C 8.8867,7.0002 9,7.1135 9,7.2502 9,7.3869 8.8867,7.5002 8.75,7.5002 8.6133,7.5002 8.5,7.3869 8.5,7.2502 8.5,7.1135 8.6094,7.0002 8.75,7.0002 Z M 4.5215,9.0002 C 4.2351,9.0002 4,9.2301 4,9.5061 V 11.49 C 4,11.772 4.2351,12 4.5215,12 4.808,12 5,11.772 5,11.49 V 12.881 C 5,13.109 5.2662,13.26 5.5,13.26 H 6 V 14.57 C 6,14.854 6.25,15 6.5,15 6.75,15 7.038,14.854 7,14.57 V 13.26 H 8 V 14.57 C 8,14.854 8.25,15 8.5,15 8.75,15 9.0163,14.854 9,14.57 V 13.262 H 9.5 C 9.7338,13.262 9.9638,13.106 10,12.881 V 11.49 C 10,11.772 10.235,12 10.521,12 10.808,12 11,11.772 11,11.49 V 9.5061 C 11,9.2304 10.813,9.0002 10.521,9.0002 10.235,9.0002 10,9.2301 10,9.5061 V 9.0002 H 5 V 9.5061 C 5,9.2304 4.8132,9.0002 4.5215,9.0002 Z"/>
</svg>
